X:1886
L:1/16
Q:1/2=90
M:2/4
K:A
 a2 |: e2e2 c2c2 | A2A2 E2FG | A2c2 B2e2 | dcec A2fg | a2a2 e2e2 | c2c2 A2Bc | B2^de E2FG |1 
 A2c2 A2a2 :|2 A2c2 A2e2 |] deee Beee | ceee a2e2 | deee ceee | BAGF Eefg | a2a2 e2e2 | c2c2 A2Bc | 
 B2^de E2FG |1 A2c2 A2e2 :|2 A2c2 A4 |]

